X: 118
T:Bobby Casey's Hornpipe
M:4/4
L:1/8
S:Kevin Burke (If The Cap Fits)
K:Am
|:eB|ABAB c>d|ea2g ageB|c2cA B2Bc|d2de dBGB|
ABAB c>d|ea2g agec|cAAc dBGB|BAAB A2:|
|:(3ABc|da2g aged|da2g aged|eg2e gedB|eg2e gedB|
ABAB c>d|ea2g aged|cAAc dBGA|BAAB A2:|
